X:22
T:The Mouth of the Tobique
D:"Chasing the bear" by Jon Hicks
Z:Transcribed by Lionel Gueganton
L:1/8
M:4/4
K:E
 z6 B,/C/D 
 |: ED EF F/G/G cB | GB GE B,E GE    | FG FE DE FD | B,/C/D EG B2 B,/C/D      |
    ED EF F/G/G cB | GB GE B,E GE    | FG FE DE FD |1 B,/C/D FD E2 B,/C/D 
                                                  :|2 B,/C/D FD E2 B/c/d      |
|: e2 ef ed Bc     | d/c/B FB d2 ed  | cB AF DE FD | B,/C/D EG [B2E2] B/c/d   | 
   e2 [BBE]f ed Bc | d/c/B FB d2 ed  | cB AF DE FD |1 B,/C/D FD [EE]B B/c/d 
                                                  :|2 B,/C/D FD [E2E2] B,/C/D |
|: [E2E2] GE EA EE | GE EA EG EE     | DE FG AG FE | G/F/E GA B2 B,/C/D       |
   E2 GE EA EE     | GE EA EG EE     | DE FG AG FE | G/F/E DF EB B,/C/D      :|
"Final"
   E2 [GE]B E=D ED | CE C=C EB, G,B, | DE FG AG FE | D/C/B, G,F, E,4

